app/images/icons/advice-info-3.svg

<svg xmlns="http://www.w3.org/2000/svg" fill="none" viewBox="0 0 40 41"><defs/><g fill="#F3F1EF" clip-path="url(#clip0)"><path d="M31.7736 9.87017c-3.3304-1.66209-.0175-.13367-15.0441-6.88308-.3058-.13741-.656-.13741-.9619 0C.739421 9.73728 4.07891 8.19568.648089 9.90791c-.5789405.28889-.813564.99159-.524094 1.56949.289471.578.993495.812 1.572285.5231l.87966-.439v17.4474c0 .646.52471 1.1698 1.17194 1.1698H28.7493c.6473 0 1.172-.5238 1.172-1.1698V11.5615c.8557.427.9788.5251 1.3273.5251.4298 0 .8438-.237 1.0491-.6469.2895-.578.0548-1.2805-.5241-1.56953zm-15.525-4.53356l11.3288 5.08849v1.1932H4.91982v-1.1932L16.2486 5.33661zM4.91982 18.9489h5.15658v3.8992H4.91982v-3.8992zm0 8.8902v-2.6514h6.32848c.6472 0 1.172-.5238 1.172-1.1698v-6.2388c0-.646-.5248-1.1697-1.172-1.1697H4.91982v-2.6515H27.5774v2.6515h-6.3285c-.6472 0-1.1719.5237-1.1719 1.1697v6.2388c0 .646.5247 1.1698 1.1719 1.1698h6.3285v2.6514H4.91982zm22.65758-4.991h-5.1565v-3.8992h5.1565v3.8992zM38.8282 27.8392h-.7813V5.22369h.7813c.6472 0 1.1719-.52374 1.1719-1.16977 0-.64602-.5247-1.16976-1.1719-1.16976h-3.8284c-.6472 0-1.1719.52374-1.1719 1.16976 0 .64603.5247 1.16977 1.1719 1.16977h.7032V27.8392h-.7032c-.6472 0-1.1719.5238-1.1719 1.1698 0 .646.5247 1.1698 1.1719 1.1698h3.8284c.6472 0 1.1719-.5238 1.1719-1.1698 0-.646-.5247-1.1698-1.1719-1.1698zM28.7493 32.8301c-.6472 0-1.1719.5237-1.1719 1.1697v.7019H4.91982v-.7019c0-.646-.52472-1.1697-1.17195-1.1697-.64722 0-1.17194.5237-1.17194 1.1697v3.7433c0 .646.52472 1.1698 1.17194 1.1698.64723 0 1.17195-.5238 1.17195-1.1698v-.7018H27.5774v.7018c0 .646.5247 1.1698 1.1719 1.1698.6473 0 1.172-.5238 1.172-1.1698v-3.7433c0-.646-.5247-1.1697-1.172-1.1697z"/></g><defs><clipPath id="clip0"><path fill="#fff" d="M0 0h40v39.9258H0z" transform="translate(0 .935547)"/></clipPath></defs></svg>

<svg width="40" height="41" viewBox="0 0 40 41" fill="none" xmlns="http://www.w3.org/2000/svg">
<g clip-path="url(#clip0)">
<path d="M31.7736 9.87017C28.4432 8.20808 31.7561 9.7365 16.7295 2.98709C16.4237 2.84968 16.0735 2.84968 15.7676 2.98709C0.739421 9.73728 4.07891 8.19568 0.648089 9.90791C0.0691485 10.1968 -0.165475 10.8995 0.123995 11.4774C0.413466 12.0554 1.11749 12.2894 1.69628 12.0005L2.57594 11.5615V29.0089C2.57594 29.6549 3.10065 30.1787 3.74788 30.1787H28.7493C29.3966 30.1787 29.9213 29.6549 29.9213 29.0089C29.9213 27.1422 29.9213 13.7204 29.9213 11.5615C30.777 11.9885 30.9001 12.0866 31.2486 12.0866C31.6784 12.0866 32.0924 11.8496 32.2977 11.4397C32.5872 10.8617 32.3525 10.1592 31.7736 9.87017ZM16.2486 5.33661L27.5774 10.4251V11.6183H4.91982V10.4251L16.2486 5.33661ZM4.91982 18.9489H10.0764V22.8481H4.91982V18.9489ZM4.91982 27.8391V25.1877H11.2483C11.8955 25.1877 12.4203 24.6639 12.4203 24.0179V17.7791C12.4203 17.1331 11.8955 16.6094 11.2483 16.6094H4.91982V13.9579H27.5774V16.6094H21.2489C20.6017 16.6094 20.077 17.1331 20.077 17.7791V24.0179C20.077 24.6639 20.6017 25.1877 21.2489 25.1877H27.5774V27.8391H4.91982ZM27.5774 22.8481H22.4209V18.9489H27.5774V22.8481Z" fill="#F3F1EF"/>
<path d="M38.8282 27.8392H38.0469V5.22369H38.8282C39.4754 5.22369 40.0001 4.69995 40.0001 4.05392C40.0001 3.4079 39.4754 2.88416 38.8282 2.88416H34.9998C34.3526 2.88416 33.8279 3.4079 33.8279 4.05392C33.8279 4.69995 34.3526 5.22369 34.9998 5.22369H35.703V27.8392H34.9998C34.3526 27.8392 33.8279 28.363 33.8279 29.009C33.8279 29.655 34.3526 30.1788 34.9998 30.1788H38.8282C39.4754 30.1788 40.0001 29.655 40.0001 29.009C40.0001 28.363 39.4754 27.8392 38.8282 27.8392Z" fill="#F3F1EF"/>
<path d="M28.7493 32.8301C28.1021 32.8301 27.5774 33.3538 27.5774 33.9998V34.7017H4.91982V33.9998C4.91982 33.3538 4.3951 32.8301 3.74787 32.8301C3.10065 32.8301 2.57593 33.3538 2.57593 33.9998V37.7431C2.57593 38.3891 3.10065 38.9129 3.74787 38.9129C4.3951 38.9129 4.91982 38.3891 4.91982 37.7431V37.0413H27.5774V37.7431C27.5774 38.3891 28.1021 38.9129 28.7493 38.9129C29.3966 38.9129 29.9213 38.3891 29.9213 37.7431V33.9998C29.9213 33.3538 29.3966 32.8301 28.7493 32.8301Z" fill="#F3F1EF"/>
</g>
<defs>
<clipPath id="clip0">
<rect width="40" height="39.9258" fill="white" transform="translate(0 0.935547)"/>
</clipPath>
</defs>
</svg>
